src/assets/images/bin-icon.svg

<?xml version="1.0" encoding="UTF-8"?>
<svg width="16px" height="20px" viewBox="0 0 16 20" version="1.1" xmlns="http://www.w3.org/2000/svg" xmlns:xlink="http://www.w3.org/1999/xlink">
    <!-- Generator: Sketch 55.2 (78181) - https://sketchapp.com -->
    <title>rubbish-bin</title>
    <desc>Created with Sketch.</desc>
    <g id="Final-Screens" stroke="none" stroke-width="1" fill="none" fill-rule="evenodd">
        <g id="customer-master-rules-history-2" transform="translate(-1055.000000, -327.000000)" fill="#6E7993" fill-rule="nonzero">
            <g id="rubbish-bin" transform="translate(1055.000000, 327.000000)">
                <path d="M14.4348387,2.35274839 L11.7669935,2.35274839 L11.7669935,0.619122581 C11.7669935,0.270167742 11.4855226,0 11.1365935,0 C11.1027355,0 11.0801548,0.0113032258 11.0691355,0.0225806452 C11.0578323,0.0113032258 11.0352516,0 11.0239742,0 L4.75385806,0 L4.70895484,0 L4.66379355,0 C4.31486452,0 4.04469677,0.270167742 4.04469677,0.619122581 L4.04469677,2.35277419 L1.36557419,2.35277419 C0.599974194,2.35277419 0.00343225806,2.94931613 0.00343225806,3.71491613 L0.00343225806,4.70554839 L0.00343225806,5.94376774 L1.18544516,5.94376774 L1.18544516,18.6302194 C1.18544516,19.3958452 1.77070968,19.9810839 2.53630968,19.9810839 L13.264129,19.9810839 C14.029729,19.9810839 14.6262452,19.3958452 14.6262452,18.6302194 L14.6262452,5.94376774 L15.7969806,5.94376774 L15.7969806,4.70554839 L15.7969806,3.71491613 C15.7969806,2.94931613 15.2002065,2.35274839 14.4348387,2.35274839 Z M5.28291613,1.23821935 L10.5174968,1.23821935 L10.5174968,2.35274839 L5.28291613,2.35274839 L5.28291613,1.23821935 L5.28291613,1.23821935 Z M13.3767484,18.6302452 C13.3767484,18.7092387 13.3428903,18.7428387 13.264129,18.7428387 L2.53630968,18.7428387 C2.45754839,18.7428387 2.42369032,18.7092129 2.42369032,18.6302452 L2.42369032,5.94374194 L13.3767484,5.94374194 L13.3767484,18.6302452 L13.3767484,18.6302452 Z M14.5474839,4.70552258 L1.25292903,4.70552258 L1.25292903,3.71489032 C1.25292903,3.63610323 1.2867871,3.59096774 1.36554839,3.59096774 L14.4348387,3.59096774 C14.5136258,3.59096774 14.5474839,3.63610323 14.5474839,3.71489032 L14.5474839,4.70552258 Z" id="Shape"></path>
                <rect id="Rectangle" x="10.1685419" y="7.39594839" width="1.24949677" height="10.2436645"></rect>
                <rect id="Rectangle" x="7.28673548" y="7.39594839" width="1.24949677" height="10.2436645"></rect>
                <rect id="Rectangle" x="4.40490323" y="7.39594839" width="1.24949677" height="10.2436645"></rect>
            </g>
        </g>
    </g>
</svg>

<?xml version="1.0" encoding="UTF-8"?>
<svg version="1.1" viewBox="0 0 16 20" xmlns="http://www.w3.org/2000/svg">
<title>rubbish-bin</title>
<desc>Created with Sketch.</desc>
<g fill="none" fill-rule="evenodd">
<g transform="translate(-1055 -327)" fill="#6E7993" fill-rule="nonzero">
<g transform="translate(1055 327)">
<path d="m14.435 2.3527h-2.6678v-1.7336c0-0.34895-0.28147-0.61912-0.6304-0.61912-0.033858 0-0.056439 0.011303-0.067458 0.022581-0.011303-0.011277-0.033884-0.022581-0.045161-0.022581h-6.2701-0.044903-0.045161c-0.34893 0-0.6191 0.27017-0.6191 0.61912v1.7337h-2.6791c-0.7656 0-1.3621 0.59654-1.3621 1.3621v0.99063 1.2382h1.182v12.686c0 0.76563 0.58526 1.3509 1.3509 1.3509h10.728c0.7656 0 1.3621-0.58524 1.3621-1.3509v-12.686h1.1707v-1.2382-0.99063c0-0.7656-0.59677-1.3622-1.3621-1.3622zm-9.1519-1.1145h5.2346v1.1145h-5.2346v-1.1145zm8.0938 17.392c0 0.078994-0.033858 0.11259-0.11262 0.11259h-10.728c-0.078761 0-0.11262-0.033626-0.11262-0.11259v-12.687h10.953v12.687zm1.1707-13.925h-13.295v-0.99063c0-0.078787 0.033858-0.12392 0.11262-0.12392h13.069c0.078787 0 0.11265 0.045135 0.11265 0.12392v0.99063z"/>
<rect x="10.169" y="7.3959" width="1.2495" height="10.244"/>
<rect x="7.2867" y="7.3959" width="1.2495" height="10.244"/>
<rect x="4.4049" y="7.3959" width="1.2495" height="10.244"/>
</g>
</g>
</g>
</svg>
